dist/svgs/unicons/monochrome/exit.svg

<svg xmlns="http://www.w3.org/2000/svg" viewBox="0 0 24 24"><path class="uim-primary" d="M15.707,11.293l-4-4A.99989.99989,0,0,0,10.293,8.707L12.58594,11H4v2h8.58594l-2.293,2.293A.99989.99989,0,1,0,11.707,16.707l4-4A.99962.99962,0,0,0,15.707,11.293Z"/><path class="uim-tertiary" d="M17,2H7A3.00328,3.00328,0,0,0,4,5v6h8.58594L10.293,8.707A.99989.99989,0,0,1,11.707,7.293l4,4a.99962.99962,0,0,1,0,1.41406l-4,4A.99989.99989,0,0,1,10.293,15.293L12.58594,13H4v6a3.00328,3.00328,0,0,0,3,3H17a3.00328,3.00328,0,0,0,3-3V5A3.00328,3.00328,0,0,0,17,2Z"/></svg>

<svg xmlns="http://www.w3.org/2000/svg" viewBox="0 0 24 24"><path d="M15.707 11.293l-4-4a1 1 0 00-1.414 1.414L12.586 11H4v2h8.586l-2.293 2.293a1 1 0 101.414 1.414l4-4a1 1 0 000-1.414z"/><path d="M17 2H7a3.003 3.003 0 00-3 3v6h8.586l-2.293-2.293a1 1 0 011.414-1.414l4 4a1 1 0 010 1.414l-4 4a1 1 0 01-1.414-1.414L12.586 13H4v6a3.003 3.003 0 003 3h10a3.003 3.003 0 003-3V5a3.003 3.003 0 00-3-3z"/></svg>
